X: 1
T: Knockabout
M: 2/4
L: 1/8
R: polka
K: Gmaj
|:GB B/c/B/A/|GB BA/G/|FA DA|FA DA|
GB B/c/B/A/|GB d> g|fd cA|G2 G2:|
|:g2 g>f|ga ag|fd de|fg af|
g2 g>f|ga ag|fd cA|G2 G2:|
|:B2 c2|dB AG|FD DE|FG Ac|
B2 c2|dB A>g|fd cA|G2 G2:|
